www/assets/icons/star_border.svg

<svg xmlns="http://www.w3.org/2000/svg" width="24" height="24" viewBox="0 0 24 24" fill='currentColor'><path d="m22 9.74-7.19-.62L12 2.5 9.19 9.13 2 9.74l5.46 4.73-1.64 7.03L12 17.77l6.18 3.73-1.63-7.03zM12 15.9l-3.76 2.27 1-4.28-3.32-2.88 4.38-.38L12 6.6l1.71 4.04 4.38.38-3.32 2.88 1 4.28z"/></svg>

<svg width="24" height="24" viewBox="0 0 24 24" xmlns="http://www.w3.org/2000/svg" fill='currentColor'><path d="M22 9.74L14.81 9.12L12 2.5L9.19 9.13L2 9.74L7.46 14.47L5.82 21.5L12 17.77L18.18 21.5L16.55 14.47L22 9.74ZM12 15.9L8.24 18.17L9.24 13.89L5.92 11.01L10.3 10.63L12 6.6L13.71 10.64L18.09 11.02L14.77 13.9L15.77 18.18L12 15.9Z"/></svg>
